svgs/solid/arrow-down-to-arc.svg

<svg xmlns="http://www.w3.org/2000/svg" viewBox="0 0 512 512"><!--! Font Awesome Pro 6.4.2 by @fontawesome - https://fontawesome.com License - https://fontawesome.com/license (Commercial License) Copyright 2023 Fonticons, Inc. --><path d="M256 448c106 0 192-86 192-192c0-17.7 14.3-32 32-32s32 14.3 32 32c0 141.4-114.6 256-256 256S0 397.4 0 256c0-17.7 14.3-32 32-32s32 14.3 32 32c0 106 86 192 192 192zM390.6 230.6l-112 112c-12.5 12.5-32.8 12.5-45.3 0l-112-112c-12.5-12.5-12.5-32.8 0-45.3s32.8-12.5 45.3 0L224 242.7 224 32c0-17.7 14.3-32 32-32s32 14.3 32 32l0 210.7 57.4-57.4c12.5-12.5 32.8-12.5 45.3 0s12.5 32.8 0 45.3z"/></svg>

<svg xmlns="http://www.w3.org/2000/svg" viewBox="0 0 512 512"><!--! Font Awesome Pro 6.1.1 by @fontawesome - https://fontawesome.com License - https://fontawesome.com/license (Commercial License) Copyright 2022 Fonticons, Inc. --><path d="M256 448C362 448 448 362 448 256C448 238.3 462.3 224 480 224C497.7 224 512 238.3 512 256C512 397.4 397.4 512 256 512C114.6 512 0 397.4 0 256C0 238.3 14.33 224 32 224C49.67 224 64 238.3 64 256C64 362 149.1 448 256 448zM278.6 342.6C266.1 355.1 245.9 355.1 233.4 342.6L121.4 230.6C108.9 218.1 108.9 197.9 121.4 185.4C133.9 172.9 154.1 172.9 166.6 185.4L224 242.7V32C224 14.33 238.3 0 256 0C273.7 0 288 14.33 288 32V242.7L345.4 185.4C357.9 172.9 378.1 172.9 390.6 185.4C403.1 197.9 403.1 218.1 390.6 230.6L278.6 342.6z"/></svg>
